humanity-icon-theme/Humanity/animations/24/brasero-disc-95.svg

<?xml version="1.0" encoding="UTF-8" standalone="no"?>
<!-- Created with Inkscape (http://www.inkscape.org/) -->
<svg
   xmlns:svg="http://www.w3.org/2000/svg"
   xmlns="http://www.w3.org/2000/svg"
   xmlns:xlink="http://www.w3.org/1999/xlink"
   version="1.0"
   width="24"
   height="24"
   id="svg2">
  <defs
     id="defs4">
    <linearGradient
       id="linearGradient3587-6-5">
      <stop
         id="stop3589-9-2"
         style="stop-color:#000000;stop-opacity:1"
         offset="0" />
      <stop
         id="stop3591-7-4"
         style="stop-color:#363636;stop-opacity:1"
         offset="1" />
    </linearGradient>
    <linearGradient
       x1="15.669166"
       y1="-2.6219723"
       x2="15.669166"
       y2="11.969362"
       id="linearGradient2401"
       xlink:href="#linearGradient3587-6-5"
       gradientUnits="userSpaceOnUse"
       gradientTransform="matrix(0.9302326,0,0,1.2359551,-10.575969,6.1536003)" />
    <linearGradient
       x1="35.007519"
       y1="23.178743"
       x2="35.007519"
       y2="4.9945626"
       id="linearGradient2404"
       xlink:href="#linearGradient3587-6-5"
       gradientUnits="userSpaceOnUse"
       gradientTransform="translate(-24.785715,-2.035714)" />
  </defs>
  <path
     d="M 12,5 C 7.5840001,5 3.9999998,8.5840001 4,13 C 4,17.416 7.5840002,21 12,21 C 16.416,21 20,17.416 20,13 C 20,8.5840001 16.416,5.0000002 12,5 z M 12,10 C 13.656,10 15,11.344 15,13 C 15,14.656 13.656,16 12,16 C 10.344,16 9,14.656 9,13 C 9.0000001,11.344 10.344,10 12,10 z"
     id="path3229"
     style="opacity:0.6;fill:#ffffff;fill-opacity:1;fill-rule:evenodd;stroke:none;stroke-width:1;stroke-linecap:butt;stroke-linejoin:miter;marker:none;marker-start:none;marker-mid:none;marker-end:none;stroke-miterlimit:4;stroke-dasharray:none;stroke-dashoffset:0;stroke-opacity:1;visibility:visible;display:inline;overflow:visible;enable-background:accumulate" />
  <path
     d="M 12,4 C 11.103,4 10.24278,4.1648142 9.4375,4.4375 L 10.96875,9.1875 C 11.292905,9.0675274 11.6343,9 12,9 L 12,4 z M 9.15625,4.53125 C 8.8655806,4.6418235 8.5858393,4.7638896 8.3125,4.90625 C 8.5865646,4.7611704 8.8718263,4.6406552 9.15625,4.53125 z M 7.1875,5.625 C 6.9918381,5.7730296 6.8060561,5.9287413 6.625,6.09375 C 6.8028592,5.9322527 6.9956143,5.7701364 7.1875,5.625 z M 4.0625,11.03125 C 4.0237488,11.350291 4,11.670555 4,12 C 4,11.670282 4.0236765,11.350582 4.0625,11.03125 z"
     id="path3170"
     style="opacity:0.41999996;fill:url(#linearGradient2404);fill-opacity:1;fill-rule:evenodd;stroke:none;stroke-width:1;stroke-linecap:butt;stroke-linejoin:miter;marker:none;marker-start:none;marker-mid:none;marker-end:none;stroke-miterlimit:4;stroke-dasharray:none;stroke-dashoffset:0;stroke-opacity:1;visibility:visible;display:inline;overflow:visible;enable-background:accumulate" />
  <path
     d="M 12,4 L 12,9 C 13.656,9.0000001 15,10.344 15,12 C 15,13.656 13.656,15 12,15 C 10.344,15 9,13.656 9,12 C 9.0000002,11.012488 9.481732,10.140527 10.21875,9.59375 C 10.456668,9.418046 10.70431,9.282915 10.96875,9.1875 L 9.4375,4.40625 C 8.6710829,4.66519 7.9352266,5.056456 7.25,5.5625 C 5.2790487,7.020065 4.0000001,9.362255 4,12 C 4,16.416 7.5840002,20 12,20 C 16.416,20 20,16.416 20,12 C 20,7.5840001 16.416,4.0000002 12,4 z"
     id="path3288"
     style="opacity:0.7;fill:url(#linearGradient2401);fill-opacity:1;fill-rule:nonzero;stroke:none;stroke-width:1;stroke-linecap:butt;stroke-linejoin:miter;marker:none;marker-start:none;marker-mid:none;marker-end:none;stroke-miterlimit:4;stroke-dasharray:none;stroke-dashoffset:0;stroke-opacity:1;visibility:visible;display:inline;overflow:visible;enable-background:accumulate" />
</svg>

<?xml version="1.0" encoding="UTF-8" standalone="no"?>
<!-- Created with Inkscape (http://www.inkscape.org/) -->
<svg id="svg2" xmlns="http://www.w3.org/2000/svg" height="24" width="24" version="1.0" xmlns:xlink="http://www.w3.org/1999/xlink">
 <defs id="defs4">
  <linearGradient id="linearGradient3587-6-5">
   <stop id="stop3589-9-2" offset="0"/>
   <stop id="stop3591-7-4" style="stop-color:#363636" offset="1"/>
  </linearGradient>
  <linearGradient id="linearGradient2401" y2="11.969" xlink:href="#linearGradient3587-6-5" gradientUnits="userSpaceOnUse" x2="15.669" gradientTransform="matrix(.93023 0 0 1.236 -10.576 6.1536)" y1="-2.622" x1="15.669"/>
  <linearGradient id="linearGradient2404" y2="4.9946" xlink:href="#linearGradient3587-6-5" gradientUnits="userSpaceOnUse" x2="35.008" gradientTransform="translate(-24.786 -2.0357)" y1="23.179" x1="35.008"/>
 </defs>
 <path id="path3229" style="opacity:.6;fill-rule:evenodd;fill:#fff" d="m12 5c-4.416 0-8 3.584-8 8s3.584 8 8 8 8-3.584 8-8-3.584-8-8-8zm0 5c1.656 0 3 1.344 3 3s-1.344 3-3 3-3-1.344-3-3 1.344-3 3-3z"/>
 <path id="path3170" style="opacity:0.42;fill-rule:evenodd;fill:url(#linearGradient2404)" d="m12 4c-0.897 0-1.757 0.1648-2.5625 0.4375l1.5315 4.75c0.324-0.12 0.665-0.1875 1.031-0.1875v-5zm-2.8438 0.5312c-0.2906 0.1106-0.5704 0.2327-0.8437 0.375 0.2741-0.145 0.5593-0.2655 0.8437-0.375zm-1.9687 1.0938c-0.1957 0.148-0.3814 0.3037-0.5625 0.4688 0.1779-0.1615 0.3706-0.3237 0.5625-0.4688zm-3.125 5.406c-0.0388 0.319-0.0625 0.64-0.0625 0.969 0-0.33 0.0237-0.649 0.0625-0.969z"/>
 <path id="path3288" style="opacity:.7;fill:url(#linearGradient2401)" d="m12 4v5c1.656 0 3 1.344 3 3s-1.344 3-3 3-3-1.344-3-3c0-0.988 0.4817-1.859 1.219-2.4062 0.238-0.1758 0.485-0.3109 0.75-0.4063l-1.5315-4.7813c-0.7664 0.259-1.5023 0.6503-2.1875 1.1563-1.971 1.4576-3.25 3.7998-3.25 6.4375 0 4.416 3.584 8 8 8s8-3.584 8-8-3.584-8-8-8z"/>
</svg>
